X: 21
T:Old Marlborough, Fieldtown
T:Heel and Toe, Fieldtown
M:6/8
L:1/8
A:Fieldtown
P:A(AB)4
K:D
P:A
|:d3  fed|dcB AGF|G2A Bcd|A2F DEF|G3  BAG|F3 D3:|
P:B
|:G3  A3 |Bcd e3 |G3  A3 |Bcd e2f|\
  d2c d2B|A2G FGA|
B2c dcB|A2F DEF|G3  BAG|F3 D3:|
